X:1
T:Title
%%score 1 { 2 | 3 }
L:1/8
Q:1/4=100
M:6/8
K:G
V:1 treble nm="Grand Piano, Soprano"
V:2 treble nm="Choir Pad, Bass"
V:3 bass 
V:1
 G2 G [GA]2 [GA] | [GB]2 [GB] [Bd]3 | [ce]2 [ce] [Bd]2 [GB] | [FA]2 [GB] [FA]3 | G2 G [GA]2 [GA] | %5
w: By~Harry~Clayton * * *|||||
 [GB]2 [GB] [Bd]3 | [ce]2 [ce] [Bd]2 [GB] | [FA]2 [FB] G3 | [Ec]2 [Ec] [Ec]2 [Ec] | [Ec]3 [Ge]3 | %10
w: |||||
 [GB]2 [GB] [GB]2 [GB] | [GB]3 [Bd]3 | [FA]2 [FA] [Ac]2 [DF] | [EG]2 [FA] [GB]3 | %14
w: ||||
 [Ec]2 [Ec] [Ge]2 [Ac] | [GB]3 [FA]3 | G6- | G3 z3 |] %18
w: ||||
V:2
 B,2 B, C2 C | D2 D D3 | C2 C G,2 B, | D2 D D3 | B,2 B, C2 C | D2 D D3 | C2 C[K:bass] G,2 B, | %7
 C2 D B,3 | C2 C C2 C | C6 | D2 D D2 D | D6 | D2 D D2 D | D2 D D3 | C2 C C2 E | D3 C3 | B,6- | %17
 B,3 z3 |] %18
V:3
 G,2 G, G,2 G, | G,2 G, G,3 | C,2 C, z2 G, | D,2 D, D,3 | G,2 G, G,2 G, | G,2 G, G,3 | %6
 C,2 C, z2 G, | D,2 D, G,3 | C,2 C, C,2 C, | C,6 | G,2 G, G,2 G, | G,6 | D,2 D, D,2 D, | %13
 D,2 D, G,3 | C,2 C, C,2 C, | D,3 D,3 | G,6- | G,3 z3 |] %18

